X: 8
T: Miss Hays Reel
%R: reel
B: "Twenty Four Country Dances for the Year 1780", Thomas Skillern, ed. p.4 #2
F: http://www.vwml.org/browse/browse-collections-dance-tune-books/browse-skillerns1780#
Z: 2014 John Chambers <jc:trillian.mit.edu>
M: C
L: 1/8
K: F
c |\
AFFc (A/B/c/A/) Fc | fc (A/B/c/A/) BGGc |\
AFFc (A/B/c/A/) Fc | f2 (a/g/f/e/) fF F :|
|: c |\
f2 a/g/f gdfc | f/g/a f/g/a gddg |\
f2 a/g/f gdfc | fdcB AF F :|
%%begintext align
%%   Cast off Two Cu. up again
%% cast off and change sides, the
%% same back again, Right & Left.
%%endtext

%%sep 1 1 500
%%sep 1 1 500
